X:1
T: Sheep Trap Valley
R: reel
C: Rick Gagne
N: 1988 on whistle and tenor banjo
M: 4/4
Q: 1/4=175
K: Bm
FA |"Bm"Bcde f2fg|fede f2fg |"D"fedf "A"eaec |"G"dcBd "F#m"cAec |
"Bm"Bcde f2fg | fede f2fg | "D"fedf "A"eaec | "G"dBcA "Em"B2 :|
de | "Bm"fB~B2 fB~B2|"A"eA~A2 eA~A2|"G"dG~G2 dG~G2|"A"ABcd "Em"efge |
"Bm"fB~B2 fBaf | "A"eA~A2 eAge |"G"dG~G2 dGdG | "F#m"ABcA "Em"B2 :|
